!!!SOCIAL_FUNCTION:	songs of the drum religion
!!!PDT:	1932
!!!OTL: No_95_Song_for_Wounded-Leg_Stake_of_Drum.krn
!!!REG: Wisconsin
!!!LANG: Non-Tone
!!!LING_GROUP: Algonquin
**kern
*staff1
=1-
=
*clefF4
*k[f#]
*M3/4
2r
8r
16r
16d\
=2
4d\
8d\L
8d\J
8.d\L
16c\Jk
=3
8c\L
8d\J
8A\L
8A\J
8A\
16r
16d\
=4
4d\
8d\L
8d\J
8.d\L
16c\Jk
=5
8c\L
8d\J
8A\L
8A\J
8.A\L
16G\Jk
=6
4G\
8E\L
8B\J
8.G\L
16E\Jk
=7
8.E\L
16D\Jk
8D\L
8D\J
8D\
16r
16G\
=8
4G\
8D\L
8B\J
8.G\L
16E\Jk
=9
(8.E\L
16D\Jk)
8D\L
8D\J
8D\
16r
16E\
=10
4E\
8D\L
8D\J
8D\L
8D\J
=11
2D\
8D\
8r
=12||
*M2/4
8A\L
16A\L
16A\JJ
8A\L
8G\J
=13
16A\LL
16A\J
8G\J
8E\L
8D\J
=14
4D\
8D\L
8D\J
=15
8D\L
8D\J
8D\
16r
16G\
=16||
*M3/4
4G\
8E\L
8B\J
4G\
=17
8.E\L
16D\Jk
8D\L
8D\J
8D\
16r
16E\
=18
4E\
8D\L
8D\J
8D\
8r
==:|!
*-
